X:1
T:Title
%%score { ( 1 3 ) | 2 }
L:1/8
Q:1/4=94
M:4/4
K:D
V:1 treble nm="Grand Piano"
V:3 treble 
V:2 bass 
V:1
 [FA][FA] [GB]>[FA] [Fd]2 [FA]2 | F>F F[CE] [B,D][CE] [DF]2 | [Fd]d d>d d2 B2 | %3
w: H.~A.~R.~Horton * * * * *|||
 [FA][Fd][Ec][DB] [CA]4 | [FA][FA] [GB]>[FA] [Fd]2 [FA]2 | F>F F[CE] [B,D][CE] [DF]2 | %6
w: |||
 [Fd]d d>d d2 B2 | Ad [Gc]>[Ge] [Fd]4 | [FA][FA] [FA]>[FA] [GB]2 [FA]2 | A4 z4 | dd c>A B2 A2 | %11
w: |||||
[M:9/8] A2- [EA-] [FA-] [GA]2- [GA] z z |[M:4/4] [FA][FA] [GB]>[FA] [Fd]2 [FA]2 | %13
w: ||
 FF F>[CE] [B,D][CE] [DF]2 | [Fd]d d>d d2 B2 | %15
w: ||
 AA [EGA]>[EGA] [DFA]4[Q:1/4=93][Q:1/4=91][Q:1/4=90][Q:1/4=88][Q:1/4=87][Q:1/4=86][Q:1/4=84][Q:1/4=83][Q:1/4=82][Q:1/4=80][Q:1/4=79][Q:1/4=77][Q:1/4=76][Q:1/4=75][Q:1/4=73][Q:1/4=72] |] %16
w: |
V:2
 [D,D][D,D] [D,D]>[D,D] [D,A,]2 [D,D]2 | [D,A,D]>[D,A,D] [D,A,D][A,,A,] [B,,F,][A,,A,] [D,A,]2 | %2
 [D,A,][K:treble][=CDF] [B,DG]>[A,DF] [G,B,G]2 [G,DG]2 | [D,D][D,A,][E,A,][E,^G,] [A,,A,]4 | %4
 [D,D][D,D] [D,D]>[D,D] [D,A,]2 [D,D]2 | [D,A,D]>[D,A,D] [D,A,D][A,,A,] [B,,F,][A,,A,] [D,A,]2 | %6
 [D,A,][K:treble][=CDF] [B,DG]>[A,DF] [G,B,G]2 [^G,D=F]2 | %7
 [A,DF][A,F][K:bass] [A,,A,]>[A,,A,] [D,A,]4 | [D,D][D,D] [D,D]>[D,D] [D,D]2 [D,D]2 | %9
 [D,D]2 [D,D][D,D] [D,A,]2 z2 | [B,DF][B,DF] [A,EG]>[A,CG] [G,DG]2[K:bass] [F,D]2 | %11
[M:9/8] [E,C]2 [A,C] [A,D] [A,E]2- [A,E] z z |[M:4/4] [D,D][D,D] [D,D]>[D,D] [D,A,]2 [D,A,]2 | %13
 [D,A,D][D,A,D] [D,A,D]>[A,,A,] [B,,F,][A,,A,] [D,A,]2 | %14
 [D,A,][K:treble][=CDF] [B,DG]>[A,DF] [G,B,G]2 [^G,D=F]2 | [A,DF][K:bass][A,CE] A,,>A,, D,4 |] %16
V:3
 x8 | x8 | x8 | x8 | x8 | x8 | x8 | x8 | x8 | F2 FF [Fd]2 z2 | x8 |[M:9/8] .G3 z3 z3 |[M:4/4] x8 | %13
 x8 | x8 | x8 |] %16

